X: 20583
T: DASHING WHITE SERGEANT
C:
%R: reel
B: Elias Howe "The Musician's Companion" 1843 p.58 #3
S: http://imslp.org/wiki/The_Musician's_Companion_(Howe,_Elias)
Z: 2015 John Chambers <jc:trillian.mit.edu>
N: This is a rather unusual version of the tune, with 9- and 11-bar strains.
M: 2/4
L: 1/16
K: D
% - - - - - - - - - - - - - - - - - - - - - - - - -
RAF |\
DCDE DEFG | A^GAB A2fe |\
d2B2 A2F2 | B2E2E2 AF |\
DCDE DEFG | A^GAB A2f2 |
e2d2c2B2 | A2f2e2^d2 |\
e2eee2 :|\
A^GAB cBcd | efec A2dc |\
BABc dcde | fgfe B2z2 |
A2d2 dcde | d2A2A3d |\
B2e2 e^def | e2B2B3d |\
A2d2 dcde | f2d2d2e2 |\
e2e2 d4 |]
% - - - - - - - - - - - - - - - - - - - - - - - - -

%%sep 1 1 500

